X:1
T:60 National Airs of Different Nations
T:Nº. 12. Russian Hymn.
T:60 National Airs of Different Nations
T:Felix Horetzky (1796-1870)
T:Sheet music from www.MutopiaProject.org - Pubblico dominio
C:Felix Horetzky
C:(1796-1870)
Z:Sheet music from www.MutopiaProject.org - Pubblico dominio
%%score ( 1 2 3 )
L:1/8
M:4/4
K:G
V:1 treble-8 nm="N°. 12  \nAndante\n "
V:2 treble-8 
V:3 treble-8 
V:1
"^Religioso." [GBd]4 [Gce]2 [Gce]2 | [GBd]3 B G2 G2 | [eg]4 [df]2 [ce]2 | [Bd]4 [^GBe]4 | %4
 [Ac]4 [FAd]4 | [GB]3 A B2 ^c2 | [Bd]4 [^A^c]4 | B4 z4 || [=A=c]4 [GB]2 [FA]2 | %9
 [DGB]3 A [GB]2 [Ad]2 | g3 f [GBe]2 [FA^d]2 | e4 [cd]4 | [Bdg]4 [df]2 [ce]2 | [Bd]6 [Ac]2 | %14
 [GB]4 [FA]4 | G4 z4 || %16
V:2
 G,4 G,2 G,2 | G,4 z2 G,2 | G4 G2 G2 | G4 E4 | A,4 D4 | G,4 G2 E2 | F4 [F,E]4 | [B,D]4 z4 || %8
 D4 D2 D2 | G,4 G,2 F,2 | [E,B]2 [A,A]2 B,2 B,2 | [EGB]4 [DF]4 | G,4 [CA]2 [EG]2 | G6 C2 | D4 D4 | %15
 [G,B,]4 z4 || %16
V:3
 x8 | x8 | x8 | x8 | x8 | x8 | x8 | x8 || x8 | x8 | x2 c2 x4 | x8 | x8 | x8 | x8 | x8 || %16

